X:1
T:Svingedans
T:(FMK M 133 bild 35)
T:efter Nils Anderberg
B:Folkmusikkommissionen
R:Svingedans
S:efter Nils Anderberg
O:Tolånga, Skåne
Z:Åke Persson 2012-02-29
M:3/4
L:1/8
Q:108
%%printtempo 0
%%MIDI ratio 2 1
K:G
|: DGBAFA | cB G2 Bd | g2 gfge | ce d2 d2 :|
|: Bd g2 ec | cB G2 Bd | dcADFA | cB G2 G2 :|

